X:1
T:Title
L:1/8
M:4/4
K:C
V:1 treble nm="Grand Piano"
V:1
 z4 z[Q:1/4=100] DEF | GFED EFGF | E4- ED/D/ EF | GFED EFGF | E4- EAAB | c2 BA B2 A^G | %6
 A2 E2- EA/A/ AG | GFED EFGF | E6 z2 |] %9

